img/5star.svg

<svg width="88" height="16" viewBox="0 0 88 16" fill="none" xmlns="http://www.w3.org/2000/svg">
<path d="M88 6.18174L82.1863 5.79952L79.9968 0.299019L77.8073 5.79952L72 6.18174L76.4542 9.9638L74.9926 15.701L79.9968 12.5378L85.0011 15.701L83.5395 9.9638L88 6.18174Z" fill="#DC780B"/>
<path d="M70 6.18174L64.1863 5.79952L61.9968 0.299019L59.8073 5.79952L54 6.18174L58.4542 9.9638L56.9926 15.701L61.9968 12.5378L67.0011 15.701L65.5395 9.9638L70 6.18174Z" fill="#DC780B"/>
<path d="M52 6.18174L46.1863 5.79952L43.9968 0.299019L41.8073 5.79952L36 6.18174L40.4542 9.9638L38.9926 15.701L43.9968 12.5378L49.0011 15.701L47.5395 9.9638L52 6.18174Z" fill="#DC780B"/>
<path d="M34 6.18174L28.1863 5.79952L25.9968 0.299019L23.8073 5.79952L18 6.18174L22.4542 9.9638L20.9926 15.701L25.9968 12.5378L31.0011 15.701L29.5395 9.9638L34 6.18174Z" fill="#DC780B"/>
<path d="M16 6.18174L10.1863 5.79952L7.99681 0.299019L5.80734 5.79952L0 6.18174L4.45419 9.9638L2.99256 15.701L7.99681 12.5378L13.0011 15.701L11.5395 9.9638L16 6.18174Z" fill="#DC780B"/>
</svg>

<svg xmlns="http://www.w3.org/2000/svg" width="88" height="16" fill="#dc780b" xmlns:v="https://vecta.io/nano"><path d="M88 6.182L82.186 5.8 79.997.299 77.807 5.8 72 6.182l4.454 3.782-1.462 5.737 5.004-3.163L85 15.701l-1.462-5.737L88 6.182zm-18 0L64.186 5.8 61.997.299 59.807 5.8 54 6.182l4.454 3.782-1.462 5.737 5.004-3.163L67 15.701l-1.462-5.737L70 6.182zm-18 0L46.186 5.8 43.997.299 41.807 5.8 36 6.182l4.454 3.782-1.462 5.737 5.004-3.163L49 15.701l-1.462-5.737L52 6.182zm-18 0L28.186 5.8 25.997.299 23.807 5.8 18 6.182l4.454 3.782-1.462 5.737 5.004-3.163L31 15.701l-1.462-5.737L34 6.182zm-18 0L10.186 5.8 7.997.299 5.807 5.8 0 6.182l4.454 3.782-1.462 5.737 5.004-3.163L13 15.701l-1.462-5.737L16 6.182z"/></svg>
